dist/svgs/core-ui-icons/free/cil-filter-frames.svg

<svg xmlns="http://www.w3.org/2000/svg" viewBox="0 0 512 512"><path d="M384 104H128v236.117h256zm-32 204.117H160V136h192z"/><path d="M181.49 428.117L256 502.628l74.51-74.511H440a32.036 32.036 0 0032-32V48a32.036 32.036 0 00-32-32H72a32.036 32.036 0 00-32 32v348.117a32.036 32.036 0 0032 32zM72 48h368v348.117H317.255L256 457.372l-61.255-61.255H72z"/></svg>

<svg xmlns="http://www.w3.org/2000/svg" viewBox="0 0 512 512">
  <path fill="var(--ci-primary-color, currentColor)" d="M384,104H128V340.117H384ZM352,308.117H160V136H352Z" class="ci-primary"/>
  <path fill="var(--ci-primary-color, currentColor)" d="M181.49,428.117,256,502.628l74.51-74.511H440a32.036,32.036,0,0,0,32-32V48a32.036,32.036,0,0,0-32-32H72A32.036,32.036,0,0,0,40,48V396.117a32.036,32.036,0,0,0,32,32ZM72,48H440V396.117H317.255L256,457.372l-61.255-61.255H72Z" class="ci-primary"/>
</svg>
